X:136
T:Wonder, The
R:hornpipe
C:James Hill (1811-1853), Northumberland
H:Originally written in Bb
D:De Danann
D:Dubliners
D:Dan\'u
Z:id:hn-hornpipe-136
M:C|
L:1/8
K:G
(3DEF | GdBG FcAF | GABG D2GF | EGAB cBAG | Fd~d2 edcA |
GdBG FcAF | GABG D2GF | Eedc BAGF | A2G2 G2 :|
|: AG | FAd^c dBAG | FAd^c dfed | ^cdef gece | d^cde d2=c2 |
BcBA ^GBe2 | ABA=G FAd2 | egfe (3ded (3cBA | GgdB G2 :|
P:variations
|: (3DEF | GdBG FcAF | (3GFG BG D2GF | EGAB cBAG | FAd^c ed (3=cBA |
GdBG FcAF | (3GFG BG D2GF | Eedc BAGF | AGGF G2 :|
|: FG | Add^c dBAG | FAd^c dfed | ^cdef gece | d^cde d2=c2 |
BcBA ^GBe2 | ABA=G FAd2 | (3efg fe dcBA | (3GFG BA G2 :|

